icons/svg/transport/ferry_terminal.svg

<?xml version="1.0" encoding="UTF-8" standalone="no"?>
<!-- Created with Inkscape (http://www.inkscape.org/) -->

<svg
   xmlns:dc="http://purl.org/dc/elements/1.1/"
   xmlns:cc="http://creativecommons.org/ns#"
   xmlns:rdf="http://www.w3.org/1999/02/22-rdf-syntax-ns#"
   xmlns:svg="http://www.w3.org/2000/svg"
   xmlns="http://www.w3.org/2000/svg"
   xmlns:sodipodi="http://sodipodi.sourceforge.net/DTD/sodipodi-0.dtd"
   xmlns:inkscape="http://www.inkscape.org/namespaces/inkscape"
   version="1.0"
   width="580"
   height="580"
   id="svg2"
   sodipodi:version="0.32"
   inkscape:version="0.91 r"
   sodipodi:docname="ferry_terminal.svg"
   inkscape:output_extension="org.inkscape.output.svg.inkscape">
  <metadata
     id="metadata1976">
    <rdf:RDF>
      <cc:Work
         rdf:about="">
        <dc:format>image/svg+xml</dc:format>
        <dc:type
           rdf:resource="http://purl.org/dc/dcmitype/StillImage" />
        <cc:license
           rdf:resource="http://web.resource.org/cc/PublicDomain" />
        <dc:language>en</dc:language>
        <dc:title />
      </cc:Work>
    </rdf:RDF>
  </metadata>
  <sodipodi:namedview
     inkscape:window-height="995"
     inkscape:window-width="1280"
     inkscape:pageshadow="2"
     inkscape:pageopacity="0.0"
     guidetolerance="10.0"
     gridtolerance="10.0"
     objecttolerance="10.0"
     borderopacity="1.0"
     bordercolor="#666666"
     pagecolor="#ffffff"
     id="base"
     inkscape:zoom="0.32586207"
     inkscape:cx="289.44322"
     inkscape:cy="332.40602"
     inkscape:window-x="0"
     inkscape:window-y="0"
     inkscape:current-layer="svg2"
     showgrid="false"
     inkscape:window-maximized="1" />
  <defs
     id="defs4">
    <inkscape:perspective
       sodipodi:type="inkscape:persp3d"
       inkscape:vp_x="0 : 290 : 1"
       inkscape:vp_y="0 : 1000 : 0"
       inkscape:vp_z="580 : 290 : 1"
       inkscape:persp3d-origin="290 : 193.33333 : 1"
       id="perspective3653" />
    <marker
       viewBox="0 0 10 10"
       refY="5"
       refX="10"
       orient="auto"
       markerWidth="4"
       markerUnits="strokeWidth"
       markerHeight="3"
       id="ArrowStart">
      <path
         id="path2111"
         d="M 10 0 L 0 5 L 10 10 z" />
    </marker>
    <marker
       viewBox="0 0 10 10"
       refY="5"
       refX="0"
       orient="auto"
       markerWidth="4"
       markerUnits="strokeWidth"
       markerHeight="3"
       id="ArrowEnd">
      <path
         id="path2108"
         d="M 0 0 L 10 5 L 0 10 z" />
    </marker>
    <inkscape:perspective
       id="perspective2512"
       inkscape:persp3d-origin="177.51199 : 145.02 : 1"
       inkscape:vp_z="355.02399 : 217.53 : 1"
       inkscape:vp_y="0 : 1000 : 0"
       inkscape:vp_x="0 : 217.53 : 1"
       sodipodi:type="inkscape:persp3d" />
  </defs>
  <g
     id="g1327">
    <path
       d="M 66.275,1.768 C 24.94,1.768 1.704,23.139 1.704,66.804 L 1.704,516.927 C 1.704,557.771 22.6,579.156 63.896,579.156 L 515.92,579.156 C 557.227,579.156 578.149,558.842 578.149,516.927 L 578.149,66.804 C 578.149,24.203 557.227,1.768 514.628,1.768 C 514.624,1.768 66.133,1.625 66.275,1.768 z "
       style="fill:#111;stroke:#eee;stroke-width:3.40799999"
       id="path1329" />
  </g>
  <g
     id="g2117"
     transform="matrix(1.1975036,0,0,1.1975036,80.128205,34.575832)"
     style="fill:#000000">
    <g
       id="g2119"
       style="fill:#000000">
      <g
         id="g2121"
         style="fill:#000000">
        <path
           id="path2125"
           style="fill:#000000;stroke:none"
           d="" />
      </g>
      <g
         id="g2127"
         style="fill:#000000">
        <path
           id="path2131"
           style="fill:#000000;stroke:none"
           d="" />
      </g>
    </g>
  </g>
  <path
     style="color:#000000;display:inline;overflow:visible;visibility:visible;fill:#ffffff;fill-opacity:1;fill-rule:nonzero;stroke:none;stroke-width:10;marker:none;enable-background:accumulate"
     d="m 310.32804,85.680483 c -0.43033,-0.002 -0.888,0.0315 -1.34375,0.0625 l -265.562495,0 0,126.124997 335.281245,0 -55.6875,-117.062497 c -2.57571,-5.43584 -6.23254,-9.09992 -12.6875,-9.125 z m -244.531245,38.374997 44.593745,0 0,66.71875 -44.593745,0 z m 63.999995,0 58.59375,0 0,66.71875 -58.59375,0 z m 92,0 78.59375,0 30,66.71875 -78.59375,0 z"
     id="rect3776"
     inkscape:connector-curvature="0"
     sodipodi:nodetypes="cccccccccccccccccccccc" />
  <path
     style="color:#000000;display:inline;overflow:visible;visibility:visible;fill:#ffffff;fill-opacity:1;fill-rule:nonzero;stroke:none;stroke-width:10;marker:none;enable-background:accumulate"
     d="m 45.265545,241.02423 0,141.15625 339.093745,0 c 15.12149,-0.3836 23.13274,-13.89518 24.53125,-16.34375 l 81.34375,-124.8125 z m 298.593745,19.4375 c 27.50247,0 50.09375,22.62253 50.09375,50.125 0,27.50246 -22.59128,50.0625 -50.09375,50.0625 -27.50246,0 -50.09375,-22.56004 -50.09375,-50.0625 0,-27.50247 22.59129,-50.125 50.09375,-50.125 z m 0,28.59375 c -12.04587,0 -21.5,9.48538 -21.5,21.53125 0,12.04587 9.45413,21.46875 21.5,21.46875 12.04587,0 21.5,-9.42288 21.5,-21.46875 0,-12.04587 -9.45413,-21.53125 -21.5,-21.53125 z"
     id="rect3810"
     inkscape:connector-curvature="0"
     sodipodi:nodetypes="ccccccssssssssss" />
  <path
     style="fill:none;stroke:#ffffff;stroke-width:34.50152969;stroke-linecap:round;stroke-linejoin:miter;stroke-miterlimit:4;stroke-dasharray:none;stroke-opacity:1"
     d="m 57.941128,490.72848 c 54.843552,-57.57322 109.776222,-40.8349 154.509492,0 59.38187,-59.5225 118.41091,-42.42517 158.9596,0 48.48725,-45.37881 100.29254,-57.98215 160.41376,0"
     id="path3838"
     inkscape:connector-curvature="0"
     sodipodi:nodetypes="cccc" />
</svg>

<svg width="580" height="580" viewBox="0 0 580 580" fill="none" xmlns="http://www.w3.org/2000/svg">
<g clip-path="url(#clip0)">
<path d="M66.2751 1.76766C24.9401 1.76766 1.7041 23.1387 1.7041 66.8037V516.927C1.7041 557.771 22.6001 579.156 63.8961 579.156H515.92C557.227 579.156 578.149 558.842 578.149 516.927V66.8037C578.149 24.2027 557.227 1.76766 514.628 1.76766C514.624 1.76766 66.1331 1.62466 66.2751 1.76766Z" fill="#111111" stroke="#EEEEEE" stroke-width="3.408"/>
<path d="M310.328 85.6807C309.898 85.6787 309.44 85.7122 308.984 85.7432H43.4219V211.868H378.703L323.016 94.8057C320.44 89.3699 316.783 85.7058 310.328 85.6807ZM65.7969 124.056H110.391V190.774H65.7969V124.056ZM129.797 124.056H188.391V190.774H129.797V124.056ZM221.797 124.056H300.391L330.391 190.774H251.797L221.797 124.056Z" fill="white"/>
<path d="M45.2656 241.024V382.181H384.359C399.481 381.797 407.492 368.285 408.891 365.837L490.234 241.024H45.2656ZM343.859 260.462C371.362 260.462 393.953 283.084 393.953 310.587C393.953 338.089 371.362 360.649 343.859 360.649C316.357 360.649 293.766 338.089 293.766 310.587C293.766 283.084 316.357 260.462 343.859 260.462ZM343.859 289.056C331.814 289.056 322.359 298.541 322.359 310.587C322.359 322.633 331.814 332.056 343.859 332.056C355.905 332.056 365.359 322.633 365.359 310.587C365.359 298.541 355.905 289.056 343.859 289.056Z" fill="white"/>
<path d="M57.9409 490.729C112.784 433.155 167.717 449.894 212.45 490.729C271.832 431.206 330.861 448.303 371.41 490.729C419.897 445.35 471.703 432.746 531.824 490.729" stroke="white" stroke-width="34.5015" stroke-linecap="round"/>
</g>
<defs>
<clipPath id="clip0">
<path d="M0 0H580V580H0V0Z" fill="white"/>
</clipPath>
</defs>
</svg>
